X: 70
T:Polka #2
T:A Finnish Polka
M:2/4
L:1/8
S:Kevin Burke
R:polka
K:Bm
B>c Bc|dB Bd|cA Ac|d/c/B/A/ BF|B>c Bc|dB B2 |e2 dc|BA B2 :|
|:f>d df|ec cd|ef/e/ dc|Bc dB|f>d df|ec cd|e/f/e dc|BA B2 :|
